!!!OTL: 585. Das Lied vom Mantel.
!!!ARE: Europa, Mitteleuropa, Deutschland
!!!SCT: B0585
!!!TXL: @@DE
!!!YEM: Copyright 1995, estate of Helmut Schaffrath.
**kern	**text
*ICvox	*
*Ivox	*
*M4/4	*
*k[]	*
*C:	*
!LO:TX:a:t=Mäßig.	!
{4g	Schier
=1	=1
4cc	dreißig
4cc	.
4cc	Jah-
4ee	-re
=2	=2
4cc	biſt
4g	du
4b}	alt,
{4g	haſt
=3	=3
4ee	manchen
4cc	.
8eeL	Sturm
8ddJ	.
8ddL	er-
8bJ	.
=4	=4
2cc	-lebt;
4r}	.
{8ccL	haſt
8ddJ	.
=5	=5
4ee	mich
8ee	wie
8ee	ein
8ffL	Bru-
8eeJ	.
8dd	-der
8cc	be-
=6	=6
(4.dd	-ſchü-
8ee)	.
4dd}	-tʒet,
{8gL	und
8bJ	.
=7	=7
4dd	wenn
8dd	die
8dd	Ka-
8eeL	-no-
8ddJ	.
8cc	-nen
8b	ge-
=8	=8
(<4cc	-bli-
4g)	.
4e}	-tʒet,
{4g	wir
=9	=9
4ee	bei-
8ee	-de
8cc	hab'n
8eeL	nie-
8ddJ	.
8dd	-mals
8b	ge-
=10	=10
2cc	-bebt.
4r}	.
{8ccL	haſt
8ddJ	.
=11	=11
4ee	mich
8ee	wie
8ee	ein
8ffL	Bru-
8eeJ	.
8dd	-der
8cc	be-
=12	=12
(4.dd	-ſchü-
8ee)	.
4dd}	-tʒet,
{8gL	und
8bJ	.
=13	=13
4dd	wenn
8dd	die
8dd	Ka-
8eeL	-no-
8ddJ	.
8cc	-nen
8b	ge-
=14	=14
(<4cc	-bli-
4g)	.
4e}	-tʒet,
{4g	wir
=15	=15
4ee	bei-
8ee	-de
8cc	hab'n
8eeL	nie-
8ddJ	.
8dd	-mals
8b	ge-
=16	=16
2cc	-bebt.
4r}	.
==	==
!!!AGN: Staende -, Soldaten - Lied
!!!GTL: Soldatenlieder
!!!ONB: ESAC (Essen Associative Code) Database: BOEHME
!!!AMT: simple quadruple
!!!AIN: vox
!!!EED: Helmut Schaffrath
!!!EEV: 1.0
!!!RDF**kern: < = below
!!Volksweiſe: Es waren einmal drei Reiter gefangen" (18. Jahrh.)
!!@@COMMENT:"Das iſt das ſogenannte Mantellied aus "Lenore", vaterländ. Schauſpiel mit Geſang von
!!Karl v. Holtei. Berlin, bei Duncker und Humblot 1829. Darin ſingt es ein alter Reiterunter-
!!officier Wallheim. Das Schauſpiel, woʒu Karl Eberwein in Weimar die Muſik beſorgte, wurde
!!ʒum erſtenmal am 12. Juni 1828 in Berlin auf dem Königsſtädter Theater aufgeführt. Weil der
!!3. Akt mit dem Mantelliede ſchon im Winter 1827 entſtanden war, ſo kam's, daß man es ſchon
!!vor der Berliner Aufführung in Weimar ſang. Seinen ſoldatiſchen Text hat Holtei einer alten
!!Volksweiſe (Liederhort I, 231) angepaßt und dieſe dadurch wieder erweckt und ʒur Berühmtheit gebracht."
!!@@END:
!!!Text: K. von Holtei
!!!URL-scan: https://archive.org/details/BoehmeVtLieder1895/page/n463/mode/2up
!!!ENC: Anna Maria Matuszewska
!!!EEV: 2024/12/07
*-	*-
